.vuepress/public/cases/ads-sample.svg

<?xml version="1.0" encoding="UTF-8"?>
<svg width="940px" height="940px" viewBox="0 0 940 940" version="1.1" xmlns="http://www.w3.org/2000/svg" xmlns:xlink="http://www.w3.org/1999/xlink">
    <g id="kangaroo" stroke="none" stroke-width="1" fill="#1C3988" fill-rule="nonzero">
        <g id="path" transform="translate(470.000000, 470.000000) scale(-1, 1) translate(-470.000000, -470.000000) ">
            <path d="M110.110644,174.814 C110.110644,174.814 143.568271,287.314 215.263186,348.814 L173.520814,385.414 C170.653017,387.914 169.484655,391.813 170.653017,395.313 C175.538893,409.914 193.064316,446.313 246.171661,446.313 C295.242847,446.313 309.369401,412.013 313.299345,394.114 C314.572859,388.414 310.219119,383.013 304.163819,382.513 L283.028158,380.813 C277.823638,380.414 273.14913,383.713 272.086983,388.513 C269.644045,400.114 261.465514,418.713 233.425898,410.713 C193.807819,399.413 330.39991,330.713 330.39991,330.713 C330.39991,330.713 366.831548,353.513 417.177311,370.013 C418.027028,367.813 418.876746,365.713 419.725401,363.413 C428.435006,341.213 441.819119,319.713 458.813469,302.213 C478.038328,282.213 501.723141,269.213 529.126531,262.213 C523.815797,263.613 517.550192,268.713 513.088113,271.713 C506.502802,276.113 500.55478,281.313 495.137831,286.913 C484.197718,298.213 475.700542,311.513 469.54009,325.613 C458.918621,350.213 453.183028,380.413 455.838395,407.013 C460.19426,451.114 476.55026,539.713 538.15478,600.614 C623.126531,684.614 619.94009,703.614 584.889243,804.614 C559.928791,876.414 578.516362,917.414 591.369401,935.114 C595.510712,940.813 604.327593,940.714 608.363751,935.013 L621.640588,916.213 C623.126531,914.013 623.657605,911.413 623.126531,908.913 C619.728723,893.213 613.355842,828.013 700.451887,706.713 C702.999977,703.213 702.787548,698.513 699.920814,695.213 C681.54461,674.013 617.604429,594.813 610.275616,506.713 C601.778441,403.713 699.495955,410.713 713.303864,320.713 C713.303864,320.713 807.622508,389.413 799.656407,573.913 C791.797582,754.913 808.578441,858.013 925.097017,902.913 C929.133175,904.413 933.700407,903.413 936.568203,900.413 C940.604362,896.213 939.860859,889.613 935.081198,886.213 C906.403232,866.213 825.786282,787.313 876.132045,552.913 C936.674418,270.913 648.301537,119.413 501.725266,119.413 C355.148994,119.413 227.691367,231.913 197.420181,119.413 C197.420181,119.413 265.185153,93.013 269.008881,11.013 C269.220249,5.313 264.335435,0.713 258.280136,1.013 C231.620249,2.013 163.324203,11.013 141.656407,74.513 L75.6970847,85.513 C72.0857853,86.113 69.111774,88.413 67.8371977,91.613 L57.0032994,118.813 C56.0473672,121.113 54.2417175,123.013 51.9049944,124.113 L5.9140339,145.213 C0.284655367,147.813 -1.62720904,154.413 1.87787571,159.213 C11.4382599,172.614 38.2032994,192.714 110.110644,174.814 Z" id="Path"></path>
        </g>
    </g>
</svg>

<?xml version="1.0" encoding="UTF-8" standalone="no"?>
<svg xmlns="http://www.w3.org/2000/svg" width="470px" height="470px" viewBox="0 0 470 470">
   <g id="kangaroo" style="fill:#1c3988;fill-rule:nonzero;stroke:none;stroke-width:1" transform="translate(117.05323,-117.94677)">
      <g id="path" transform="matrix(-0.5,0,0,0.5,352.5,117.5)">
         <path d="m 110.11064,174.814 c 0,0 33.45763,112.5 105.15255,174 l -41.74238,36.6 c -2.86779,2.5 -4.03616,6.399 -2.86779,9.899 4.88587,14.601 22.4113,51 75.51864,51 49.07119,0 63.19774,-34.3 67.12769,-52.199 1.27351,-5.7 -3.08023,-11.101 -9.13553,-11.601 l -21.13566,-1.7 c -5.20452,-0.399 -9.87903,2.9 -10.94118,7.7 -2.44294,11.601 -10.62147,30.2 -38.66108,22.2 -39.61808,-11.3 96.97401,-80 96.97401,-80 0,0 36.43164,22.8 86.7774,39.3 0.84972,-2.2 1.69944,-4.3 2.54809,-6.6 8.70961,-22.2 22.09372,-43.7 39.08807,-61.2 19.22486,-20 42.90967,-33 70.31306,-40 -5.31073,1.4 -11.57634,6.5 -16.03842,9.5 -6.58531,4.4 -12.53333,9.6 -17.95028,15.2 -10.94011,11.3 -19.43729,24.6 -25.59774,38.7 -10.62147,24.6 -16.35706,54.8 -13.7017,81.4 4.35587,44.101 20.71187,132.7 82.31639,193.601 84.97175,84 81.78531,103 46.73446,204 -24.96045,71.8 -6.37288,112.8 6.48016,130.5 4.14131,5.699 12.95819,5.6 16.99435,-0.101 l 13.27684,-18.8 c 1.48594,-2.2 2.01701,-4.8 1.48594,-7.3 -3.39781,-15.7 -9.77069,-80.9 77.32536,-202.2 2.54809,-3.5 2.33566,-8.2 -0.53108,-11.5 -18.3762,-21.2 -82.31638,-100.4 -89.64519,-188.5 -8.49718,-103 89.22033,-96 103.02824,-186 0,0 94.31865,68.7 86.35255,253.2 -7.85883,181 8.92203,284.1 125.44061,329 4.03616,1.5 8.60339,0.5 11.47118,-2.5 4.03616,-4.2 3.29266,-10.8 -1.487,-14.2 -28.67797,-20 -109.29492,-98.9 -58.94916,-333.3 60.54238,-282 -227.8305,-433.5 -374.40677,-433.5 -146.57628,0 -274.0339,112.5 -304.30509,0 0,0 67.76497,-26.4 71.5887,-108.4 0.21137,-5.7 -4.67344,-10.3 -10.72874,-10 -26.65989,1 -94.95594,10 -116.62373,73.5 l -65.959325,11 c -3.6113,0.6 -6.585311,2.9 -7.859887,6.1 l -10.833899,27.2 c -0.955932,2.3 -2.761582,4.2 -5.098305,5.3 l -45.9909601,21.1 c -5.62937853,2.6 -7.5412429,9.2 -4.0361582,14 9.5603843,13.401 36.3254233,33.501 108.2327643,15.601 z" />
      </g>
   </g>
</svg>
